!!!!SEGMENT: pl-kk--kk-i-382--098_anonim-swieta-dziewico-bogarodzico.krn
!!!id: 18xx:1623
!!!COM: Anonim
!!!OTL: Święta Dziewico Bogarodzico
!!!PDT:
!!!SMS-siglum: PL-Kk
!!!SMS-shelfmark: Kk.I.382
!!!NIFC-rismID: 1001142984
!!!URL-scan: http://repozytorium.nifc.pl/skany/pl-kk-nut--i-382
!!!ONB-nifc: utwór notowany ołówkiem w B2, 0251
!!!SMS-variant:
!!!SMS-altvar:
**kern	**text
*I"Basso II	*
*I'B II	*
*clefF4	*
*k[b-e-a-]	*
*M12/8	*
*all\right	*
=1	=1
!LO:TX:a:t=4	!
!LO:TX:t=P:problem:przy kluczu błędnie E- CC- BB-	!
1.r	.
=2	=2
1.r	.
=3	=3
1.r	.
=4	=4
1.r	.
=5	=5
4.G\	Swię-
4G\	-ta
8F\	dzie-
4.F\	-wi-
!LO:N:vis=4	!
4.E-\	-co
=6	=6
!LO:N:vis=4	!
4.e-\	Bo-
4d\	-ga-
8c\	-ro-
4.c\	-dzi-
4.B-\	-co
=7	=7
!LO:N:vis=4	!
4.B-\	do
4A-\	Cie-
8G\	-bie
!LO:N:vis=4	!
4.G\	wzno-
!LO:N:vis=4	!
4.F\	-sim
!LO:LB:g=original	!
=8	=8
!LO:N:vis=4	!
4.F\	mo-
4G\	-dli-
8F\	-twy
!LO:N:vis=4	!
4.F\	głos
4r	.
8r	.
=9	=9
!LO:N:vis=4	!
4.F\	U-
4G\	-dziel
8D\	po-
4.F\	-cie-
4.E-\	-chy
=10	=10
4.B-\	zmaż
4c\	na-
8B-\	-sze
!LO:N:vis=4	!
4.c\	grze-
4.B-\	-chy
!LO:LB:g=original	!
=11	=11
4.B-\	I
4A-\	od-
8F\	-wróć
4.F\	od
4.E-\	nas
=12	=12
4.D\	zło-
4A-\	-wro-
8D/	-gi
4.E-\	los
4r	.
8r	.
=13	=13
!LO:TX:a:t=1.	!
1.r	.
=14	=14
4.D\	Przez
4B-\	miecz
8An\	bo-
4.A\	-le-
4.G\	-ści
!LO:LB:g=original	!
=15	=15
4D\	co
8B-\	Twe
!LO:TX:t=P:problem:skreślona chorągiewka ósemki	!
!LO:N:vis=4.	!
4An\	ser-
8G\	-ce
4.G\	ra-
4.F#X\	-ni
=16	=16
!LO:TX:a:t=1	!
1.r	.
=17	=17
4.D\	I
4c\	mę-
8B-\	-ka
4.B-\	Te-
4.An\	-go
=18	=18
4c\	Któ-
8c\	-ry
4B-\	zba-
8A-\	-wił
4.G\	świat
4r	.
8r	.
!LO:LB:g=original	!
=19	=19
4.d\	Wy-
4G\	-słu-
8G\	-chaj
4.A-\	pró-
4.G\	-by
=20	=20
4G\	o
8G\	naj-
4An\	-swięt-
8Bn\	-sza
4.d\	Pa-
4.c\	-ni
=21	=21
4.d-X\	ci-
4c\	-chéj
8B-\	lecz
[4dn\	czy-
4d\]	.
8c\	.
8B-\	-stéj
!LO:LB:g=original	!
=22	=22
8An\L	jak
8G\J	.
8F\	po-
8E-\L	-ran-
8D\J	.
8C/	-ny
4.BB-/	Kwiat
4r	.
8r	.
=23	=23
!LO:TX:a:t=3	!
1.r	.
=24	=24
1.r	.
=25	=25
1.r	.
=26	=26
4.G\	Swię-
4G\	-ta
8F\	dzie-
4.F\	-wi-
4.E-\	-co
=27	=27
4.E-\	Bo-
4D\	-ga-
8C/	-ro-
4.C/	-dzi-
4.BB-/	-co
!LO:LB:g=original	!
=28	=28
4.B-\	do
4B-\	Cie-
8An\	-bie
4.G\	wzno-
4.F\	-sim
=29	=29
4.F\	mo-
4G\	-dli-
8F\	-twy
4.F\	głos
4r	.
8r	.
=30	=30
4.F\	u-
4G\	-dziel
8A-\	po-
4.A-\	-cie-
4.G\	-chy
=31	=31
4.A-\	zmaż
4B-\	na-
8c\	-sze
4.c\	grze-
4.B-\	-chy
!LO:LB:g=original	!
=32	=32
4.c\	i
4B-\	od-
8A-\	-wróć
!LO:N:vis=4	!
4.A-\	od
!LO:N:vis=4	!
4.G\	nas
=33	=33
4.G\	zło-
4A-\	-wro-
8G\	-gi
4.G\	los
4r	.
8r	.
=34	=34
!LO:N:vis=4	!
4.e-\	i
4d\	od-
8c\	-wróć
(4.B-\	od
4G\)	.
8E-\	nas
=35	=35
4.D\	zło-
4c-X\	-wro-
8B-\	-gi
4.E-\	los
4r	.
8r	.
==	==
*-	*-
!!!ENC: Andrzej Kubiczek
!!!END: 2021-03-06
!!!ENC: Andrzej Kubiczek
!!!END: 2021-03-29
